src/topics/icons/supergiant.svg

<svg height="258" preserveAspectRatio="xMidYMid" viewBox="0 0 256 258" width="256" xmlns="http://www.w3.org/2000/svg"><path d="m148.866523 8.05417544c-41.353319-19.21761724-92.2426794-2.40291034-116.6235134 39.81839006-8.0297836 13.908066-12.2345015 28.9278162-12.9295913 43.7543335-2.1886127 2.9592765-4.2350597 6.0757587-6.1226191 9.344524-25.7196651 44.543904-12.1963635 100.497142 30.2083199 124.978476 25.4993456 14.720398 55.6363955 14.706506 81.2039059 2.667951 41.649963 20.503639 93.627842 3.817349 118.34875-38.996808 15.491021-26.828909 16.744447-57.796764 6.026933-83.534171 4.128573-34.9524216-11.43644-69.9205433-42.587355-87.9047817-17.947475-10.36081448-38.19243-13.42165086-57.524824-10.12791496z" fill="#dbe9f5"/><path d="m224.12499 165.779591c-.694976 14.826298-4.899701 29.84546-12.929629 43.752498-25.71557 44.543905-80.939131 60.810191-123.3438144 36.328857-22.69822-13.103349-37.1209022-35.228139-41.6778254-59.793354-34.4448583-26.963481-43.87450243-77.421422-20.2828136-118.2798837 22.3075371-38.634438 66.8099131-55.9965261 105.8902174-43.9499934 22.410591-6.6935024 46.954254-4.6805111 68.262222 7.6211363 42.400588 24.4772381 55.923889 80.4304758 30.204224 124.9743808-1.887472 3.269435-3.933912 6.386531-6.122581 9.346359z" fill="#9bdcff"/><path d="m216.073622 76.7043271c23.919397 28.2875229 28.262948 70.8843109 7.825943 106.2824289-20.535268 35.561774-59.878833 53.099594-96.486945 46.264331-19.658661 3.597095-40.3274432.617325-58.6132839-9.939569-42.4005879-24.481333-55.9238895-80.430476-30.2042245-124.9784763.0146196-.0253214.0292488-.0506337.0438874-.0759368 1.209753-13.5131192 5.3492955-27.0883575 12.6562211-39.7420632 25.719665-44.5439048 80.9432259-60.81019051 123.3438139-36.3329524 22.3054 12.878735 36.620354 34.467092 41.434588 58.5222378z" fill="#3b9dff"/><path d="m81.5035401 206.038851c42.4005879 24.473143 97.6241489 8.215048 123.3438139-36.328857s12.192268-100.4971428-30.20832-124.9784761c-42.404683-24.4772381-97.6241489-8.2109524-123.3438139 36.3288571-25.719665 44.543905-12.1963635 100.497143 30.20832 124.978476z" fill="#3356b4"/></svg>

<?xml version="1.0" encoding="UTF-8" standalone="no"?>
<svg width="256px" height="258px" viewBox="0 0 256 258" version="1.1" xmlns="http://www.w3.org/2000/svg" xmlns:xlink="http://www.w3.org/1999/xlink" preserveAspectRatio="xMidYMid">
	<g>
		<path d="M148.866523,8.05417544 C107.513204,-11.1634418 56.6238436,5.6512651 32.2430096,47.8725655 C24.213226,61.7806315 20.0085081,76.8003817 19.3134183,91.626899 C17.1248056,94.5861755 15.0783586,97.7026577 13.1907992,100.971423 C-12.5288659,145.515327 0.994435696,201.468565 43.3991191,225.949899 C68.8984647,240.670297 99.0355146,240.656405 124.603025,228.61785 C166.252988,249.121489 218.230867,232.435199 242.951775,189.621042 C258.442796,162.792133 259.696222,131.824278 248.978708,106.086871 C253.107281,71.1344494 237.542268,36.1663277 206.391353,18.1820893 C188.443878,7.82127482 168.198923,4.76043844 148.866529,8.05417434 Z" fill="#DBE9F5"></path>
		<path d="M224.12499,165.779591 C223.430014,180.605889 219.225289,195.625051 211.195361,209.532089 C185.479791,254.075994 130.25623,270.34228 87.8515466,245.860946 L87.8515466,245.860946 C65.1533266,232.757597 50.7306444,210.632807 46.1737212,186.067592 C11.7288629,159.104111 2.29921877,108.64617 25.8909076,67.7877083 C48.1984447,29.1532703 92.7008207,11.7911822 131.781125,23.8377149 C154.191716,17.1442125 178.735379,19.1572038 200.043347,31.4588512 C242.443935,55.9360893 255.967236,111.889327 230.247571,156.433232 C228.360099,159.702667 226.313659,162.819763 224.12499,165.779591 Z" fill="#9BDCFF"></path>
		<path d="M216.073622,76.7043271 C239.993019,104.99185 244.33657,147.588638 223.899565,182.986756 C203.364297,218.54853 164.020732,236.08635 127.41262,229.251087 C107.753959,232.848182 87.0851768,229.868412 68.7993361,219.311518 L68.7993361,219.311518 C26.3987482,194.830185 12.8754466,138.881042 38.5951116,94.3330417 C38.6097312,94.3077203 38.6243604,94.282408 38.638999,94.2571049 C39.848752,80.7439857 43.9882945,67.1687474 51.2952201,54.5150417 C77.0148851,9.9711369 132.238446,-6.29514881 174.639034,18.1820893 C196.944434,31.0608243 211.259388,52.6491813 216.073622,76.7043271 Z" fill="#3B9DFF"></path>
		<path d="M81.5035401,206.038851 C123.904128,230.511994 179.127689,214.253899 204.847354,169.709994 C230.567019,125.166089 217.039622,69.2128512 174.639034,44.7315179 C132.234351,20.2542798 77.0148851,36.5205655 51.2952201,81.060375 C25.5755551,125.60428 39.0988566,181.557518 81.5035401,206.038851 L81.5035401,206.038851 Z" fill="#3356B4"></path>
	</g>
</svg>
